X:4157
L:1/8
M:6/8
K:F
|: F | AGF dcB | A<BG F2 F | AGF dcB |1 GAB c2 :|2 c2 c |:O d2 d def | cAF A2 c | def ABc |1 
 BAG F2 F :|2 BAG F2 |]

